X:82
T:Rakes of Kildare
M:6/8
L:1/8
K:Ador
E|EAA {B}AGA|Bcd e2f|gfg (e/f/g)e|dBA G2E|EAA {B}AGA|Bcd e2f|gfe dBG|A3 A2:|
g|aea aea|aea b2a|{a}gfg (e/f/g)e|dBA G2a|aea aea|aea b2a|gfe dBG|A3 A2
a|{b}aea {b}aea|{b}aea (b2a)|{a}gfg (e/f/g)e|dBg G2E|EAA {B}AGA|Bcd e2f|gfe dBG|A3 A2:|
